X: 21
T: Man Of The House, The
Z: shanachie
S: https://thesession.org/tunes/222#setting50635
R: reel
M: 4/4
L: 1/8
K: Edor
E2 BE GABG|E2BE AFDF|E2 BE GABc|dBAd BEED|
E2 BE GABG|E2BG FDAF|E2 BE GABc|dBAd Beed||
efge fgaf|gfed ed B/c/d|efge fgaf|gfed Beed|
efge fgaf|gfed efga|bgaf gefd|eBBA G2FB||

